pk/gavel.svg

<svg viewBox="0 0 48 48" fill="none" xmlns="http://www.w3.org/2000/svg" height="1em" width="1em">
  <path d="M11.0745 37.0792C7.68854 38.5409 6.03602 40.5241 5.36485 41.9094C5.09915 42.4578 5.54601 43 6.15537 43H27.3865C28.1288 43 28.5986 42.2236 28.1659 41.6205C26.4167 39.182 23.7818 37.6426 22.3887 37.0682C22.2756 37.0216 22.1547 37 22.0323 37H11.4615C11.3291 37 11.1962 37.0267 11.0745 37.0792Z" fill="#2F88FF" stroke="black" stroke-width="4" stroke-linecap="round" stroke-linejoin="round"/>
  <rect x="14.7319" y="18.8564" width="10" height="10" transform="rotate(-60 14.7319 18.8564)" fill="#2F88FF" stroke="black" stroke-width="4" stroke-linejoin="round"/>
  <path d="M27.3921 16.9277L28.3921 15.1957C27.4355 14.6434 26.2123 14.9711 25.66 15.9277L27.3921 16.9277ZM24.3921 22.1239L22.66 21.1239C22.1078 22.0805 22.4355 23.3037 23.3921 23.8559L24.3921 22.1239ZM26.3921 18.6598L39.3825 26.1598L41.3825 22.6957L28.3921 15.1957L26.3921 18.6598ZM38.3825 27.8918L25.3921 20.3918L23.3921 23.8559L36.3825 31.3559L38.3825 27.8918ZM26.1241 23.1239L29.1241 17.9277L25.66 15.9277L22.66 21.1239L26.1241 23.1239ZM39.7485 27.5258C39.4724 28.0041 38.8608 28.168 38.3825 27.8918L36.3825 31.3559C38.7739 32.7366 41.8319 31.9173 43.2126 29.5258L39.7485 27.5258ZM39.3825 26.1598C39.8608 26.4359 40.0246 27.0475 39.7485 27.5258L43.2126 29.5258C44.5933 27.1343 43.7739 24.0764 41.3825 22.6957L39.3825 26.1598Z" fill="black"/>
  <rect x="21" y="4" width="14" height="6" rx="3" transform="rotate(30 21 4)" fill="#2F88FF" stroke="black" stroke-width="4" stroke-linejoin="round"/>
  <rect x="13" y="17.8564" width="14" height="6" rx="3" transform="rotate(30 13 17.8564)" fill="#2F88FF" stroke="black" stroke-width="4" stroke-linejoin="round"/>
</svg>

<svg viewBox="0 0 48 48" fill="none" xmlns="http://www.w3.org/2000/svg" height="1em" width="1em">
  <path d="M11.075 37.08c-3.386 1.46-5.039 3.444-5.71 4.83-.266.548.181 1.09.79 1.09h21.232c.742 0 1.212-.776.779-1.38-1.75-2.438-4.384-3.977-5.777-4.552a.933.933 0 0 0-.357-.068h-10.57a.98.98 0 0 0-.387.08Z" fill="#2F88FF" stroke="#000" stroke-width="4" stroke-linecap="round" stroke-linejoin="round"/>
  <path fill="#2F88FF" stroke="#000" stroke-width="4" stroke-linejoin="round" d="m14.732 18.856 5-8.66 8.66 5-5 8.66z"/>
  <path d="m27.392 16.928 1-1.732a2 2 0 0 0-2.732.732l1.732 1Zm-3 5.196-1.732-1a2 2 0 0 0 .732 2.732l1-1.732Zm2-3.464 12.99 7.5 2-3.464-12.99-7.5-2 3.464Zm11.99 9.232-12.99-7.5-2 3.464 12.99 7.5 2-3.464Zm-12.258-4.768 3-5.196-3.464-2-3 5.196 3.464 2Zm13.625 4.402a1 1 0 0 1-1.367.366l-2 3.464a5 5 0 0 0 6.83-1.83l-3.464-2Zm-.367-1.366a1 1 0 0 1 .367 1.366l3.464 2a5 5 0 0 0-1.83-6.83l-2 3.464Z" fill="#000"/>
  <rect x="21" y="4" width="14" height="6" rx="3" transform="rotate(30 21 4)" fill="#2F88FF" stroke="#000" stroke-width="4" stroke-linejoin="round"/>
  <rect x="13" y="17.856" width="14" height="6" rx="3" transform="rotate(30 13 17.856)" fill="#2F88FF" stroke="#000" stroke-width="4" stroke-linejoin="round"/>
</svg>
